X:24
T:La glissante
R:Scottiche
C:trad
A:Cantal
O:France
Z:S. Piron
M:2/4
L:1/8
Q:1/4=100
K:C
ee e>d|c/2B/2c/2e/2g2|f/2e/2d/2f/2 e/2d/2c/2e/2|d/2c/2B/2A/2 AG|
ee e>d|c/2B/2c/2e/2g2|f/2e/2d/2f/2 e/2d/2c/2e/2|d/2c/2B/2d/2 c2:|
|:g/2e/2c/2e/2 g2|g/2e/2c/2e/2 G>e|d/2c/2B/2c/2 d/2e/2f/2g/2|1a/2e/2f/2d/2 ec:|2a/2e/2f/2d/2 c2||
